Origami/64x64/apps/grub-customizer.svg

<svg width="64" height="64" version="1" xmlns="http://www.w3.org/2000/svg">
 <path d="m5.1337626 23.486813-0.2148342 0.37109c-0.3154315 0.558585-0.1778412 1.331644 0.3085916 1.749953l4.4372802 3.893894c0.0451748-0.613343 0.1088851-1.220367 0.1992126-1.82417l-4.6364748-4.06989c-0.039199-0.036-0.059198-0.084-0.093797-0.121997zm53.732549 0c-0.03458 0.038-0.05458 0.0874-0.09374 0.121097l-4.636675 4.07029c0.09026 0.603803 0.154016 1.210827 0.199215 1.82417l4.43748-3.894494c0.486367-0.418309 0.624003-1.191368 0.308592-1.749953l-0.213994-0.37199zm-49.220671 8.51577c-0.016659 0.332251-0.042967 0.661682-0.042967 0.999973 0 0.507426 0.026069 1.005173 0.062498 1.499959l0.1992131-0.175775c-0.1147969-0.765979-0.1795951-1.539958-0.2187941-2.323937zm44.708793 0c-0.03932 0.783859-0.104138 1.557998-0.218755 2.324137l0.199215 0.175775c0.03644-0.494786 0.0625-0.992533 0.0625-1.499959 0-0.338291-0.0263-0.667722-0.04296-0.999973zm-49.220671 8.51577c-0.3945894 0.433988-0.5047864 1.11397-0.2147942 1.627956l5.6014486 9.710738c0.324771 0.550785 1.055632 0.821698 1.660115 0.613263l5.820043-1.969947c1.748773 1.399903 3.742699 2.541732 5.863042 3.370909l1.179648 5.992039c0.119797 0.627383 0.716781 1.127989 1.355443 1.136689h11.202898c0.638643-8e-3 1.235687-0.509306 1.355443-1.136689l1.179648-5.992039c2.117943-0.829977 4.111889-1.971946 5.859842-3.371908l5.820243 1.968706c0.604464 0.208435 1.335344-0.0624 1.660115-0.613263l5.601449-9.710738c0.290012-0.513586 0.179795-1.195108-0.214834-1.628856l-5.386655 9.339548c-0.324771 0.550865-1.055651 0.821698-1.660115 0.613263l-5.821843-1.969946c-1.748772 1.399902-3.742699 2.537731-5.863041 3.367109l-1.179649 5.995838c-0.117996 0.625983-0.71598 1.127969-1.353963 1.135969h-11.202898c-0.638642-0.0086-1.235646-0.509306-1.355443-1.136689l-1.177968-5.995838c-2.121943-0.829978-4.115089-1.967947-5.863842-3.367909l-5.820243 1.967946c-0.604383 0.209995-1.335164-0.062-1.659955-0.611983l-5.3866544-9.339748z" style="opacity:.2"/>
 <path d="m26.268392 4.002566c-0.593604 0.064598-1.11647 0.5502851-1.224967 1.1374493l-1.181188 5.9934377c-2.120543 0.829298-4.113489 1.968707-5.862242 3.368709l-5.817843-1.968746c-0.604783-0.208395-1.337964 0.0616-1.662755 0.612583l-5.5998487 9.712138c-0.3154314 0.558585-0.1801951 1.331624 0.3062318 1.749933l4.6372748 4.06849c-0.1631956 1.09091-0.2624929 2.188541-0.2624929 3.32491 0 1.136409 0.099197 2.23394 0.2624929 3.32491l-4.6372748 4.06869c-0.4863669 0.418309-0.6216632 1.191348-0.3062318 1.749933l5.5998487 9.712138c0.324771 0.550785 1.057952 0.820898 1.662435 0.612463l5.818443-1.968667c1.748773 1.399903 3.741699 2.539332 5.862242 3.36871l1.181188 5.993438c0.119797 0.627383 0.717561 1.128749 1.356203 1.137449h11.199498c0.638643-8e-3 1.236447-0.510066 1.356183-1.137449l1.181208-5.993438c2.120543-0.829298 4.113489-1.968727 5.862242-3.36871l5.818443 1.968667c0.604464 0.208435 1.337664-0.0616 1.662435-0.612463l5.599849-9.712138c0.315411-0.558585 0.180195-1.331624-0.306232-1.749933l-4.637275-4.06869c0.163196-1.09091 0.262473-2.188341 0.262473-3.32491 0-1.136409-0.0994-2.23394-0.262473-3.32491l4.637275-4.06849c0.486367-0.418309 0.621643-1.191348 0.306232-1.749933l-5.599849-9.712138c-0.323991-0.551585-1.057971-0.821778-1.661955-0.613383l-5.818443 1.968666c-1.749953-1.400962-3.741899-2.540331-5.861842-3.369709l-1.181968-5.9934377c-0.119996-0.6273831-0.71798-1.1287695-1.355963-1.1373693h-11.199498c-0.0438-0.00102-0.0876-0.00102-0.131196 0z" style="fill:#78ac3d"/>
 <path d="m32.000237 21.000648c6.627221 0 11.999676 5.372455 11.999676 11.999676s-5.372455 11.999676-11.999676 11.999676-11.999676-5.372455-11.999676-11.999676 5.372455-11.999676 11.999676-11.999676z" style="opacity:.2"/>
 <path d="m32.000237 20.001334c6.627221 0 11.999676 5.372455 11.999676 11.999676s-5.372455 11.999676-11.999676 11.999676-11.999676-5.372455-11.999676-11.999676 5.372455-11.999676 11.999676-11.999676z" style="fill:#ffffff"/>
 <path d="m32.000237 14.001096c-9.928332 0-17.999514 8.071182-17.999514 17.999514s8.071182 17.999514 17.999514 17.999514 17.999514-8.071182 17.999514-17.999514-8.071182-17.999514-17.999514-17.999514zm0 2.117543c8.783963 0 15.881971 7.098008 15.881971 15.881971s-7.098008 15.881971-15.881971 15.881971c-8.783763 0-15.881971-7.097808-15.881971-15.881571s7.098208-15.881971 15.881971-15.881971z" style="opacity:.2"/>
 <path d="m30.152287 14.096093c-9.062155 0.928035-16.150764 8.599768-16.150764 17.904317 0 9.928332 8.071182 17.999514 17.999514 17.999514 1.48952 0 2.928921-0.201515 4.313684-0.543865 0.128156-0.296292 0.35425-0.799739 0.256473-1.195368-0.0903-0.36533-0.38893-0.676422-0.723821-0.866417-1.232446 0.305992-2.516732 0.488107-3.845496 0.488107-8.783763 0-15.881971-7.098208-15.881971-15.881971 0-8.374974 6.456626-15.19999 14.669604-15.819373 0.317631-0.343571 0.438328-0.713521 0.37903-1.197808-0.0614-0.498586-0.444688-0.768999-1.015373-0.887156z" style="fill:#ffee57"/>
 <path d="m26.269531 4l-0.001953 0.0019531c-0.593604 0.064598-1.116112 0.5515077-1.224609 1.1386719l-1.181641 5.992187c-2.120543 0.829298-4.112575 1.969139-5.861328 3.369141l-5.818359-1.96875c-0.604783-0.208395-1.337319 0.062298-1.66211 0.613281l-5.5996091 9.710938c-0.2017875 0.357337-0.2015793 0.795835-0.0605469 1.179687 0.022548-0.05921 0.0291887-0.124156 0.0605469-0.179687l5.5996091-9.712891c0.324791-0.550983 1.057327-0.819723 1.66211-0.611328l5.818359 1.96875c1.748753-1.400002 3.740785-2.539843 5.861328-3.369141l1.181641-5.9941401c0.108497-0.5871642 0.631005-1.0721208 1.224609-1.1367188l0.001953-0.0019531c0.043596-0.00102 0.08706-0.00102 0.13086 0h11.199218c0.637983 0.0085998 1.235473 0.5093356 1.355469 1.1367188l1.181641 5.9941402c2.119943 0.829378 4.113328 1.968179 5.863281 3.369141l5.818359-1.96875c0.603984-0.208395 1.338119 0.061696 1.66211 0.613281l5.599609 9.712891c0.031092 0.055062 0.038119 0.11905 0.060547 0.177734 0.1401-0.383319 0.140817-0.821123-0.060547-1.177734l-5.599609-9.710938c-0.323991-0.551585-1.058126-0.821676-1.66211-0.613281l-5.818359 1.96875c-1.749953-1.400962-3.743338-2.541716-5.863281-3.371094l-1.181641-5.9921871c-0.119996-0.6273831-0.717486-1.1300721-1.355469-1.1386719h-11.199218c-0.0438-0.00102-0.087264-0.00102-0.13086 0zm-16.513672 25.582031c-0.0908402 0.795085-0.15625 1.59633-0.15625 2.419922 0 0.169148 0.0172048 0.332468 0.0214844 0.5 0.0244387-0.958498 0.103216-1.897192 0.2421874-2.826172l-0.1074218-0.09375zm44.486329 0.001953l-0.105469 0.091797c0.138867 0.929031 0.215776 1.867669 0.240234 2.826172 0.004282-0.167545 0.021485-0.330828 0.021485-0.5 0-0.822991-0.065556-1.623484-0.15625-2.417969zm0 5.833985c-0.034544 0.302546-0.06046 0.607333-0.105469 0.908203l4.636719 4.068359c0.175883 0.151253 0.287839 0.355164 0.367187 0.572266 0.204714-0.53653 0.071103-1.195352-0.367187-1.572266l-4.53125-3.976562zm-44.486329 0.001953l-4.5292969 3.974609c-0.4378277 0.376562-0.571046 1.034045-0.3671875 1.570313 0.0794286-0.216181 0.1919588-0.419604 0.3671875-0.570313l4.6367187-4.068359c-0.0449459-0.300281-0.0729198-0.604301-0.1074218-0.90625z" style="fill:#ffffff;opacity:.2"/>
</svg>

<svg xmlns="http://www.w3.org/2000/svg" width="64" height="64" version="1">
 <path style="opacity:0.2" d="m 5.1337626,23.486813 -0.2148342,0.37109 C 4.6034969,24.416488 4.7410872,25.189547 5.22752,25.607856 L 9.6648002,29.50175 C 9.709975,28.888407 9.7736853,28.281383 9.8640128,27.67758 L 5.227538,23.60769 c -0.039199,-0.036 -0.059198,-0.084 -0.093797,-0.121997 z m 53.7325494,0 c -0.03458,0.038 -0.05458,0.0874 -0.09374,0.121097 l -4.636675,4.07029 c 0.09026,0.603803 0.154016,1.210827 0.199215,1.82417 l 4.43748,-3.894494 c 0.486367,-0.418309 0.624003,-1.191368 0.308592,-1.749953 l -0.213994,-0.37199 z m -49.2206713,8.51577 c -0.016659,0.332251 -0.042967,0.661682 -0.042967,0.999973 0,0.507426 0.026069,1.005173 0.062498,1.499959 L 9.8643848,34.32674 C 9.7495879,33.560761 9.6847897,32.786782 9.6455907,32.002803 Z m 44.7087933,0 c -0.03932,0.783859 -0.104138,1.557998 -0.218755,2.324137 l 0.199215,0.175775 c 0.03644,-0.494786 0.0625,-0.992533 0.0625,-1.499959 0,-0.338291 -0.0263,-0.667722 -0.04296,-0.999973 z m -49.2206714,8.51577 c -0.3945894,0.433988 -0.5047864,1.11397 -0.2147942,1.627956 l 5.6014486,9.710738 c 0.324771,0.550785 1.055632,0.821698 1.660115,0.613263 l 5.820043,-1.969947 c 1.748773,1.399903 3.742699,2.541732 5.863042,3.370909 l 1.179648,5.992039 C 25.163062,60.490694 25.760046,60.9913 26.398708,61 l 11.202898,0 c 0.638643,-0.008 1.235687,-0.509306 1.355443,-1.136689 l 1.179648,-5.992039 c 2.117943,-0.829977 4.111889,-1.971946 5.859842,-3.371908 l 5.820243,1.968706 c 0.604464,0.208435 1.335344,-0.0624 1.660115,-0.613263 l 5.601449,-9.710738 c 0.290012,-0.513586 0.179795,-1.195108 -0.214834,-1.628856 l -5.386655,9.339548 c -0.324771,0.550865 -1.055651,0.821698 -1.660115,0.613263 l -5.821843,-1.969946 c -1.748772,1.399902 -3.742699,2.537731 -5.863041,3.367109 l -1.179649,5.995838 c -0.117996,0.625983 -0.71598,1.127969 -1.353963,1.135969 l -11.202898,0 c -0.638642,-0.0086 -1.235646,-0.509306 -1.355443,-1.136689 L 23.861937,51.864467 C 21.739994,51.034489 19.746848,49.89652 17.998095,48.496558 l -5.820243,1.967946 c -0.604383,0.209995 -1.335164,-0.062 -1.659955,-0.611983 L 5.1312426,40.512773 Z"/>
 <path style="fill:#78ac3d" d="m 26.268392,4.002566 c -0.593604,0.064598 -1.11647,0.5502851 -1.224967,1.1374493 l -1.181188,5.9934377 c -2.120543,0.829298 -4.113489,1.968707 -5.862242,3.368709 l -5.817843,-1.968746 c -0.604783,-0.208395 -1.337964,0.0616 -1.662755,0.612583 l -5.5998487,9.712138 c -0.3154314,0.558585 -0.1801951,1.331624 0.3062318,1.749933 l 4.6372748,4.06849 c -0.1631956,1.09091 -0.2624929,2.188541 -0.2624929,3.32491 0,1.136409 0.099197,2.23394 0.2624929,3.32491 l -4.6372748,4.06869 c -0.4863669,0.418309 -0.6216632,1.191348 -0.3062318,1.749933 l 5.5998487,9.712138 c 0.324771,0.550785 1.057952,0.820898 1.662435,0.612463 l 5.818443,-1.968667 c 1.748773,1.399903 3.741699,2.539332 5.862242,3.36871 l 1.181188,5.993438 c 0.119797,0.627383 0.717561,1.128749 1.356203,1.137449 l 11.199498,0 c 0.638643,-0.008 1.236447,-0.510066 1.356183,-1.137449 l 1.181208,-5.993438 c 2.120543,-0.829298 4.113489,-1.968727 5.862242,-3.36871 l 5.818443,1.968667 c 0.604464,0.208435 1.337664,-0.0616 1.662435,-0.612463 l 5.599849,-9.712138 c 0.315411,-0.558585 0.180195,-1.331624 -0.306232,-1.749933 l -4.637275,-4.06869 c 0.163196,-1.09091 0.262473,-2.188341 0.262473,-3.32491 0,-1.136409 -0.0994,-2.23394 -0.262473,-3.32491 l 4.637275,-4.06849 c 0.486367,-0.418309 0.621643,-1.191348 0.306232,-1.749933 l -5.599849,-9.712138 c -0.323991,-0.551585 -1.057971,-0.821778 -1.661955,-0.613383 l -5.818443,1.968666 C 44.249566,13.10032 42.25762,11.960951 40.137677,11.131573 L 38.955709,5.1381353 C 38.835713,4.5107522 38.237729,4.0093658 37.599746,4.000766 l -11.199498,0 c -0.0438,-0.00102 -0.0876,-0.00102 -0.131196,0 z"/>
 <path style="opacity:0.2" d="m 32.000237,21.000648 c 6.627221,0 11.999676,5.372455 11.999676,11.999676 C 43.999913,39.627545 38.627458,45 32.000237,45 25.373016,45 20.000561,39.627545 20.000561,33.000324 c 0,-6.627221 5.372455,-11.999676 11.999676,-11.999676 z"/>
 <path style="fill:#ffffff" d="m 32.000237,20.001334 c 6.627221,0 11.999676,5.372455 11.999676,11.999676 0,6.627221 -5.372455,11.999676 -11.999676,11.999676 -6.627221,0 -11.999676,-5.372455 -11.999676,-11.999676 0,-6.627221 5.372455,-11.999676 11.999676,-11.999676 z"/>
 <path style="opacity:0.2" d="m 32.000237,14.001096 c -9.928332,0 -17.999514,8.071182 -17.999514,17.999514 0,9.928332 8.071182,17.999514 17.999514,17.999514 9.928332,0 17.999514,-8.071182 17.999514,-17.999514 0,-9.928332 -8.071182,-17.999514 -17.999514,-17.999514 z m 0,2.117543 c 8.783963,0 15.881971,7.098008 15.881971,15.881971 0,8.783963 -7.098008,15.881971 -15.881971,15.881971 -8.783763,0 -15.881971,-7.097808 -15.881971,-15.881571 0,-8.783763 7.098208,-15.881971 15.881971,-15.881971 z"/>
 <path style="fill:#ffee57" d="m 30.152287,14.096093 c -9.062155,0.928035 -16.150764,8.599768 -16.150764,17.904317 0,9.928332 8.071182,17.999514 17.999514,17.999514 1.48952,0 2.928921,-0.201515 4.313684,-0.543865 0.128156,-0.296292 0.35425,-0.799739 0.256473,-1.195368 -0.0903,-0.36533 -0.38893,-0.676422 -0.723821,-0.866417 -1.232446,0.305992 -2.516732,0.488107 -3.845496,0.488107 -8.783763,0 -15.881971,-7.098208 -15.881971,-15.881971 0,-8.374974 6.456626,-15.19999 14.669604,-15.819373 0.317631,-0.343571 0.438328,-0.713521 0.37903,-1.197808 -0.0614,-0.498586 -0.444688,-0.768999 -1.015373,-0.887156 z"/>
 <path style="fill:#ffffff;opacity:0.2" d="M 26.269531 4 L 26.267578 4.0019531 C 25.673974 4.0665511 25.151466 4.5534608 25.042969 5.140625 L 23.861328 11.132812 C 21.740785 11.96211 19.748753 13.101951 18 14.501953 L 12.181641 12.533203 C 11.576858 12.324808 10.844322 12.595501 10.519531 13.146484 L 4.9199219 22.857422 C 4.7181344 23.214759 4.7183426 23.653257 4.859375 24.037109 C 4.881923 23.977899 4.8885637 23.912953 4.9199219 23.857422 L 10.519531 14.144531 C 10.844322 13.593548 11.576858 13.324808 12.181641 13.533203 L 18 15.501953 C 19.748753 14.101951 21.740785 12.96211 23.861328 12.132812 L 25.042969 6.1386719 C 25.151466 5.5515077 25.673974 5.0665511 26.267578 5.0019531 L 26.269531 5 C 26.313127 4.99898 26.356591 4.99898 26.400391 5 L 37.599609 5 C 38.237592 5.0085998 38.835082 5.5093356 38.955078 6.1367188 L 40.136719 12.130859 C 42.256662 12.960237 44.250047 14.099038 46 15.5 L 51.818359 13.53125 C 52.422343 13.322855 53.156478 13.592946 53.480469 14.144531 L 59.080078 23.857422 C 59.11117 23.912484 59.118197 23.976472 59.140625 24.035156 C 59.280725 23.651837 59.281442 23.214033 59.080078 22.857422 L 53.480469 13.146484 C 53.156478 12.594899 52.422343 12.324808 51.818359 12.533203 L 46 14.501953 C 44.250047 13.100991 42.256662 11.960237 40.136719 11.130859 L 38.955078 5.1386719 C 38.835082 4.5112888 38.237592 4.0085998 37.599609 4 L 26.400391 4 C 26.356591 3.99898 26.313127 3.99898 26.269531 4 z M 9.7558594 29.582031 C 9.6650192 30.377116 9.5996094 31.178361 9.5996094 32.001953 C 9.5996094 32.171101 9.6168142 32.334421 9.6210938 32.501953 C 9.6455325 31.543455 9.7243098 30.604761 9.8632812 29.675781 L 9.7558594 29.582031 z M 54.242188 29.583984 L 54.136719 29.675781 C 54.275586 30.604812 54.352495 31.54345 54.376953 32.501953 C 54.381235 32.334408 54.398438 32.171125 54.398438 32.001953 C 54.398438 31.178962 54.332882 30.378469 54.242188 29.583984 z M 54.242188 35.417969 C 54.207644 35.720515 54.181728 36.025302 54.136719 36.326172 L 58.773438 40.394531 C 58.949321 40.545784 59.061277 40.749695 59.140625 40.966797 C 59.345339 40.430267 59.211728 39.771445 58.773438 39.394531 L 54.242188 35.417969 z M 9.7558594 35.419922 L 5.2265625 39.394531 C 4.7887348 39.771093 4.6555165 40.428576 4.859375 40.964844 C 4.9388036 40.748663 5.0513338 40.54524 5.2265625 40.394531 L 9.8632812 36.326172 C 9.8183353 36.025891 9.7903614 35.721871 9.7558594 35.419922 z"/>
</svg>
